static/img/platform/security/db.svg

<?xml version="1.0" encoding="UTF-8" standalone="no"?>
<!DOCTYPE svg PUBLIC "-//W3C//DTD SVG 1.1//EN" "http://www.w3.org/Graphics/SVG/1.1/DTD/svg11.dtd">
<svg width="100%" height="100%" viewBox="0 0 32 32" version="1.1" xmlns="http://www.w3.org/2000/svg" xmlns:xlink="http://www.w3.org/1999/xlink" xml:space="preserve" xmlns:serif="http://www.serif.com/" style="fill-rule:evenodd;clip-rule:evenodd;stroke-linejoin:round;stroke-miterlimit:2;">
    <path d="M32,16C32,7.169 24.831,0 16,0C7.169,0 0,7.169 0,16C0,24.831 7.169,32 16,32C24.831,32 32,24.831 32,16Z" style="fill:rgb(251,237,83);fill-opacity:0.1;"/>
    <path d="M23.91,8.76C23.427,8.44 22.907,8.181 22.36,7.99C20.314,7.289 18.162,6.95 16,6.99C13.838,6.949 11.685,7.287 9.64,7.99C9.093,8.179 8.572,8.438 8.09,8.76C7.792,8.918 7.537,9.146 7.348,9.425C7.158,9.704 7.038,10.025 7,10.36L7,21.23C7,23.1 11,24.61 16,24.61C21,24.61 25,23.1 25,21.23L25,10.36C24.962,10.025 24.842,9.704 24.653,9.425C24.463,9.146 24.208,8.918 23.91,8.76ZM23.5,17.59C23.16,18.17 20.64,19.47 16.02,19.47C11.4,19.47 8.86,18.2 8.57,17.62L8.57,15.86C10.895,16.936 13.44,17.449 16,17.36C18.584,17.457 21.155,16.94 23.5,15.85L23.5,17.59ZM23.5,13.98C23.16,14.56 20.64,15.85 16.02,15.85C11.4,15.85 8.86,14.58 8.57,14L8.57,12.27C10.915,13.36 13.486,13.877 16.07,13.78C18.654,13.877 21.225,13.36 23.57,12.27L23.5,13.98ZM9.15,9.85L9.48,9.69L9.78,9.54L10.22,9.36L10.62,9.21L11.18,9.06L11.66,8.93L12.36,8.79L12.9,8.69L13.81,8.59L14.35,8.54C14.843,8.5 15.363,8.48 15.91,8.48L16.09,8.48C16.643,8.48 17.163,8.5 17.65,8.54L18.19,8.59L19.1,8.69L19.63,8.79L20.34,8.93L20.82,9.06L21.38,9.21L21.78,9.36L22.22,9.52L22.52,9.67L22.85,9.83L23.05,9.97L23.27,10.12L23.38,10.24C23.416,10.277 23.45,10.317 23.48,10.36C23.12,10.94 20.6,12.23 16,12.23C11.4,12.23 8.87,10.96 8.57,10.36C8.597,10.315 8.631,10.275 8.67,10.24L8.78,10.12L8.99,9.97L9.15,9.85ZM16,23.12C11.29,23.12 8.75,21.77 8.5,21.21L8.5,19.48C10.844,20.574 13.415,21.095 16,21C18.585,21.095 21.156,20.574 23.5,19.48L23.5,21.21C23.25,21.77 20.71,23.12 16,23.12Z" style="fill:rgb(251,209,83);fill-rule:nonzero;"/>
    <path d="M21.961,14.449C22.237,14.449 22.461,14.225 22.461,13.949C22.461,13.673 22.237,13.449 21.961,13.449C21.685,13.449 21.461,13.673 21.461,13.949C21.461,14.225 21.685,14.449 21.961,14.449Z" style="fill:rgb(251,209,83);fill-rule:nonzero;"/>
    <path d="M19.859,14.93C20.136,14.93 20.359,14.706 20.359,14.43C20.359,14.153 20.136,13.93 19.859,13.93C19.583,13.93 19.359,14.153 19.359,14.43C19.359,14.706 19.583,14.93 19.859,14.93Z" style="fill:rgb(251,209,83);fill-rule:nonzero;"/>
    <path d="M21.961,18.02C22.237,18.02 22.461,17.796 22.461,17.52C22.461,17.243 22.237,17.02 21.961,17.02C21.685,17.02 21.461,17.243 21.461,17.52C21.461,17.796 21.685,18.02 21.961,18.02Z" style="fill:rgb(251,209,83);fill-rule:nonzero;"/>
    <path d="M19.859,18.51C20.136,18.51 20.359,18.286 20.359,18.01C20.359,17.734 20.136,17.51 19.859,17.51C19.583,17.51 19.359,17.734 19.359,18.01C19.359,18.286 19.583,18.51 19.859,18.51Z" style="fill:rgb(251,209,83);fill-rule:nonzero;"/>
    <path d="M21.961,21.619C22.237,21.619 22.461,21.395 22.461,21.119C22.461,20.843 22.237,20.619 21.961,20.619C21.685,20.619 21.461,20.843 21.461,21.119C21.461,21.395 21.685,21.619 21.961,21.619Z" style="fill:rgb(251,209,83);fill-rule:nonzero;"/>
    <path d="M19.859,22.109C20.136,22.109 20.359,21.886 20.359,21.609C20.359,21.333 20.136,21.109 19.859,21.109C19.583,21.109 19.359,21.333 19.359,21.609C19.359,21.886 19.583,22.109 19.859,22.109Z" style="fill:rgb(251,209,83);fill-rule:nonzero;"/>
</svg>

<svg xmlns="http://www.w3.org/2000/svg" xml:space="preserve" style="fill-rule:evenodd;clip-rule:evenodd;stroke-linejoin:round;stroke-miterlimit:2" viewBox="0 0 32 32"><path d="M32 16c0-8.831-7.169-16-16-16S0 7.169 0 16s7.169 16 16 16 16-7.169 16-16" style="fill:#fbed53;fill-opacity:.1"/><path d="M23.91 8.76a7 7 0 0 0-1.55-.77 18.6 18.6 0 0 0-6.36-1 18.5 18.5 0 0 0-6.36 1 6.8 6.8 0 0 0-1.55.77A2.079 2.079 0 0 0 7 10.36v10.87c0 1.87 4 3.38 9 3.38s9-1.51 9-3.38V10.36a2.074 2.074 0 0 0-1.09-1.6m-.41 8.83c-.34.58-2.86 1.88-7.48 1.88s-7.16-1.27-7.45-1.85v-1.76a16.34 16.34 0 0 0 7.43 1.5 16.34 16.34 0 0 0 7.5-1.51zm0-3.61c-.34.58-2.86 1.87-7.48 1.87S8.86 14.58 8.57 14v-1.73a16.34 16.34 0 0 0 7.5 1.51 16.34 16.34 0 0 0 7.5-1.51zM9.15 9.85l.33-.16.3-.15.44-.18.4-.15.56-.15.48-.13.7-.14.54-.1.91-.1.54-.05q.74-.06 1.56-.06h.18q.83 0 1.56.06l.54.05.91.1.53.1.71.14.48.13.56.15.4.15.44.16.3.15.33.16.2.14.22.15.11.12q.055.056.1.12c-.36.58-2.88 1.87-7.48 1.87s-7.13-1.27-7.43-1.87a.5.5 0 0 1 .1-.12l.11-.12.21-.15zM16 23.12c-4.71 0-7.25-1.35-7.5-1.91v-1.73A16.3 16.3 0 0 0 16 21a16.3 16.3 0 0 0 7.5-1.52v1.73c-.25.56-2.79 1.91-7.5 1.91" style="fill:#fbd153;fill-rule:nonzero"/><path d="M21.961 14.449a.5.5 0 1 0 0-1 .5.5 0 0 0 0 1M19.859 14.93a.5.5 0 1 0 0-1 .5.5 0 0 0 0 1M21.961 18.02a.5.5 0 1 0 0-1 .5.5 0 0 0 0 1M19.859 18.51a.5.5 0 1 0 0-1 .5.5 0 0 0 0 1M21.961 21.619a.5.5 0 1 0 0-1 .5.5 0 0 0 0 1M19.859 22.109a.499.499 0 1 0 0-1 .5.5 0 0 0 0 1" style="fill:#fbd153;fill-rule:nonzero"/></svg>
